X:2
T:Rory O'More
C:Trad, Am. (after CW)  
M:6/8
L:1/8
Q:3/8=116
K:A 
 gf |: eAA cBA | eAA A2 f | eAA cBA | GBB Bcd |
 eAA cBA | ecA f2e | cde efg | a3 a3 :||
 g |: agf fec | dcB A2 G | FAA ABc | Bfe efg |
  agf fec | dcB A2 G | FGA ABd | cfe e3 :||
%%%%  From Cathie Whitesides.
%%%%  -- eric  10/07/00
